!!!!SEGMENT: sonata08-3.krn
!!!COM: Beethoven, Ludwig van
!!!CDT: 1770///-1827///
!!!OTL: Piano Sonata no. 8 in C minor
!!!OTP: pathétique
!!!OPS: 13
!!!OMV: 3
!!!OMD: Rondo
!!!OMD: Allegro
**kern	**kern	**dynam
*staff2	*staff1	*staff1/2
*Ipiano	*Ipiano	*Ipiano
*clefF4	*clefG2	*
*k[b-e-a-]	*k[b-e-a-]	*
*c:	*c:	*
*M2/2	*M2/2	*
*MM208	*MM208	*
8r	8g'L	p
4r	8cc'	.
.	8dd'J	.
=1	=1	=1
(8CL	(4.ee-	.
8E-	.	.
8G	.	.
8cJ)	8ff	.
(8CL	4.dd	.
8F	.	.
8G	.	.
8BnJ)	8ee-)	.
=2	=2	=2
(8CL	2cc	.
8E-	.	.
8G	.	.
8cJ)	.	.
.	(8ddq	.
8e-L	(8ccL)	.
8g	8bn	.
8e-	8cc	.
8dJ	8ddJ	.
=3	=3	=3
.	(8ffq	.
8cL	8ee-L)	.
8g	8dd	.
8c 8e-	8ee-	.
8gJ	8ffJ)	.
8Bn 8dL	4gg'	.
8g	.	.
8A- 8c	4gg'	.
8gJ	.	.
=4	=4	=4
(8GL	2.gg	.
8Bn	.	.
8d	.	.
8gJ)	.	.
(8GL	.	.
8B	.	.
8d	(8ffL	.
8gJ)	8ggJ)	.
!!LO:LB:g=original
=5	=5	=5
.	(16ffqLL	.
.	16ggqJJ	.
(8FL	(2aa-)	.
8A-	.	.
8Bn	.	.
8dJ)	.	.
(8FL	4dd)	.
8A-	.	.
8B	(8ee-L	.
8dJ)	8ffJ)	.
=6	=6	=6
.	(16ee-qLL	.
.	16ffqJJ	.
(8E-L	(2gg)	.
8G	.	.
8c	.	.
8e-J)	.	.
(8A-L	4cc)	.
8c	.	.
8e-	(8ccL	.
8f#J)	8ddJ)	.
=7	=7	=7
(8GL	4ee-'	.
8c	.	.
8e-	(8ee-L	.
8gJ)	8ffJ)	.
(8GL	4dd'	.
8Bn	.	.
8d	(8ddL	.
8gJ)	8ee-J)	.
=8	=8	=8
8r	4cc'	.
(8CL	.	.
8E-	4r	.
8GJ	.	.
4c)	4r	.
4r	(8ffL	.
.	8ggJ)	.
=9	=9	=9
8r	2a- (2aa-	>
(8FFL	.	.
8BBn	.	.
8DJ	.	.
8FL	4dd')	]
8A-	.	.
8G	(8ee-L	.
8FJ)	8ffJ)	.
=10	=10	=10
8r	2g (2gg	.
(8EE-L	.	.
8GG	.	.
8CJ	.	.
8E-L	4cc')	.
8G	.	.
8A-	(8ccL	.
8F#J)	8ddJ)	.
!!LO:LB:g=original
=11	=11	=11
8GGL	4ee-'	.
8G	.	.
8c	(8ee-L	.
8GJ	8ffJ)	.
8GGL	4dd'	.
8G	.	.
8Bn	(8ddL	.
8GJ	8ee-J)	.
=12	=12	=12
8CL	4cc	.
8c	.	<
8Bn	2bb-X	.
8cJ	.	.
8EnL	.	.
8c	.	.
8G	[4bb-	.
8cJ	.	.
=13	=13	=13
8FL	(8bb-L]	.
8c	8aa-	.
8A-	8gg	.
8cJ	8ffJ	.
8GL	8ee-L	.
8f	8dd	.
8Bn	8cc	.
8fJ	8bnJ)	.
=14	=14	=14
8A-L	4cc'	.
8e-	.	.
8c	2cc 2ccc	.
8e-J	.	.
8GL	.	.
8en	.	.
8c	[4bb-X	.
8eJ	.	.
=15	=15	=15
8FL	(8bb-L]	.
8f	8aa-	.
8c	8gg	.
8fJ	8ffJ	.
8GL	8ee-L	.
8g	8dd	.
8G	8cc	.
8gJ	8bnJ)	.
=16	=16	=16
4c'	4cc'	.
4G (4Bn	(4ddt	f
.	(16ccqLL	.
.	16ddqJJ	.
4C' 4c')	4ee-'))	.
4GG'\ 4G'\	4bn' 4dd' 4bbn'	.
!!LO:LB:g=original
=17	=17	=17
4CC' 4C'	4cc' 4ee-' 4ccc'	.
4r	4r	.
2r	2r	.
=18	=18	=18
1BBB- 1BB-	1G 1c 1en	fp
=19	=19	=19
4AAA- 4AA-	(8fL	.
.	8cc	.
4r	8a-	.
.	8ffJ	.
2r	8ccL	.
.	8aa-	.
.	8ff	.
.	8cccJ)	.
=20	=20	=20
4r	(8bb-L	.
.	8gg	.
4En 4c	8een	.
.	8ccJ	.
4E 4c	8b-L<	.
.	8bn	.
4E 4c	8cc	.
.	8gJ)	.
=21	=21	=21
[2F [2c	(2b-X/	.
4F] 4c]	4a-)	.
4r	4r	.
=22	=22	=22
1AAA- 1AA-	1F< 1B- 1d	fp
=23	=23	=23
4GGG 4GG	(8e-XL<	.
.	8b-	.
4r	8g	.
.	8ee-J	.
2r	8b-L	.
.	8gg	.
.	8ee-	.
.	8bb-J)	.
!!LO:LB:g=original
=24	=24	=24
4r	(8aa-L	.
.	8gg	.
4D 4B-	8ff	.
.	8ee-J	.
4D 4B-	8ddL	.
.	8cc	.
4D 4B-	8b-	.
.	8a-J)	.
=25	=25	=25
8E-L	4g	.
8B-	.	.
!	!LO:TX:b:i:t=dolce	!
8e-	2b-	.
8B-J	.	.
8A-L	.	.
8B-	.	.
8d	[4b-	.
8B-J	.	.
=26	=26	=26
8GL	(8b-L]	.
8B-	8cc	.
8e-	8dd	.
8B-J	8ee-J	.
8DL	8ffL	.
8B-	8gg	.
8d	8aa-	.
8B-J	8ffJ)	.
=27	=27	=27
8E-L	(8aa-L	.
8B-	8gg	.
8e-	8ff	.
8B-J	8ee-J	.
8A-L	8ee-L	.
8B-	8dd	.
8f	8cc	.
8B-J	8ddJ)	.
=28	=28	=28
8GL	(8ffL	.
8B-	8ee-	.
8e-	8dd	.
8B-J	8ccJ)	.
8DL	4a- 4b-	.
8B-	.	.
8D	4a- 4b-	.
8B-J	.	.
=29	=29	=29
*	*^	*
8E-L	[1b-	(8a-L	.
8B-	.	8g	.
8E-	.	8f	.
8B-J	.	8e-J)	.
8A-L	.	(8e-L	.
8B-	.	8d	.
8A-	.	8c	.
8B-J	.	8dJ)	.
*	*v	*v	*
!!LO:LB:g=original
=30	=30	=30
8G-L	(8e- 8b-]L	.
8B-	8cc	.
8G-	8dd	.
8B-J	8ee-J	.
8DL	8ffL	.
8B-	8gg-	.
8D	8aa-	.
8B-J	8ffJ)	.
=31	=31	=31
8E-L	4gg-	.
8B-	.	.
8G-	2bb-	<
8B-J	.	.
8BB-L	.	.
8B-	.	.
8D	[4bb-	.
8B-J	.	.
=32	=32	=32
8C-L	(4bb-]	.
8B-	.	.
8E-	2eee-	.
8B-J	.	.
8C-L	.	.
8An	.	.
8E-	4aan)	.
8AJ	.	.
=33	=33	=33
4BB-	[2bb-	p
4B->'< 4d>'< 4f>'<	.	.
*	*Xtuplet	*
2B-> 2e-> 2g->	12bb-L<]	sf
.	12aan	.
.	12bb-J	.
.	12cccL<	.
.	12bb-	.
.	12aaJ	.
=34	=34	=34
4r	[2bb-	.
4B->'< 4d>'< 4f>'<	.	.
2B-> 2e-> 2g->	12bb-L<]	sf
.	12aan	.
.	12bb-J	.
.	12cccL<	.
.	12bb-	.
.	12aaJ	.
*clefG2	*	*
!!LO:LB:g=original
=35	=35	=35
4B- 4d 4f	12r	.
.	(12bb-L	.
.	12cccJ	.
4r	12dddL	.
.	12ccc	.
.	12bb-J)	.
4B- 4f 4a-	12r	.
.	(12dddL	.
.	12eee-J	.
4r	12fffL	.
.	12eee-	.
.	12dddJ)	.
=36	=36	=36
4B- 4d 4f 4a-	(12fffL	.
.	12eee-	.
.	12dddJ	.
4r	12cccL	.
.	12bb-	.
.	12aa-XJ	.
2r	12ggL	.
.	12ff	.
.	12ee-J	.
.	16ddLL	.
.	16cc	.
.	16b-	.
.	16a-JJ)	.
*clefF4	*	*
=37	=37	=37
4E-	12gL	.
.	12e-	.
.	12fJ	.
4r	12gL	.
.	12f	.
.	12e-J	.
*Xtuplet	*	*
12r	2a-z	.
12B-L	.	.
12cJ	.	.
12dL	.	.
12c	.	.
12B-J	.	.
=38	=38	=38
4e-	12gL	.
.	12ee-	.
.	12ffJ	.
4r	12ggL	.
.	12ff	.
.	12ee-J	.
12r	2aa-z	.
12B-L	.	.
12cJ	.	.
12dL	.	.
12c	.	.
12B-J	.	.
!!LO:LB:g=original
=39	=39	=39
4e-	12ggL	.
.	12ee-	.
.	12ffJ	.
4r	12ggL	.
.	12ff	.
.	12ee-J	.
4e-	12bb-L	.
.	12gg	.
.	12aa-J	.
4r	12bb-L	.
.	12aa-	.
.	12ggJ	.
=40	=40	=40
4G 4B- 4d- 4e-	(12ddd-L	.
.	12ccc	.
.	12bb-J	.
4r	12aa-L	.
.	12gg	.
.	12ffJ	.
2r	12ee-L	.
.	12ddn	.
.	12ee-J	.
.	12eenL	.
.	12ff	.
.	12dd-J)	f
=41	=41	=41
(12AA-L<	4r	.
12C	.	.
12E-J	.	.
4A-)	(12cL	.
.	12e-	.
.	12a-J	.
2r	12ccL	.
.	12ee-	.
.	12aa-J)	.
.	8ccc'L	.
.	8ccc'J	.
*clefG2	*	*
=42	=42	=42
4B- 4e- 4g	(8cccL	.
.	8bb-)	.
4r	8aa-'	.
.	8gg'J	.
4B- 4f 4a-	(8ggL	.
.	8ff)	.
4r	8ee-'	.
.	8dd'J	.
!!LO:LB:g=original
=43	=43	=43
4e- 4g	4ee-	.
4r	4r	.
2r	4r	.
.	4B-	p
*clefF4	*	*
=44	=44	=44
4A-' (4B-'	(4d' 4f'	.
4A-' 4B-'	4d' 4f'	.
4A-' 4B-'	4d' 4f'	.
4A-' 4B-')	4d') 4f'	.
=45	=45	=45
2.G 2.B-	2.e- 2.b-	.
4G	4e- 4b-	.
=46	=46	=46
2c'	2e-' 2a-'	.
2c-'	2e-' 2f' 2an'	.
=47	=47	=47
2.B-	2.d 2.f 2.b-	.
4r	4b-	.
=48	=48	=48
4A-' (4d'	4b-' (4ff'	<
4A-' 4d'	4b-' 4ff'	.
4A-' 4d'	4b-' 4ff'	.
4A-' 4d')	4b-' 4ff')	.
=49	=49	=49
*	*^	*
1G^ 1e-^	(2.bb-	(2b-	.
.	.	2dd-	sf
.	4bbn	.	.
=50	=50	=50	=50
4A- 4e-	4ccc)	4cc)	f
4r	4r	4r	.
4BB- 4B-	4f 4a- 4ddn	4ryy	.
4r	4r	4r	.
*clefG2	*	*	*
*	*v	*v	*
!!LO:LB:g=original
=51	=51	=51
12r	4g 4ee-	p
12e-L	.	.
12fJ	.	.
12gL	4r	.
12f	.	.
12e-J	.	.
2a-z	12r	.
.	12b-L	.
.	12ccJ	.
.	12ddL	.
.	12cc	.
.	12b-J	.
=52	=52	=52
12gL	4ee-	.
12e-	.	.
12fJ	.	.
12gL	4r	.
12f	.	.
12e-J	.	.
2a-z	12r	.
.	12b-L	.
.	12ccJ	.
.	12ddL	.
.	12cc	.
.	12b-J	.
=53	=53	=53
4e- 4g	12ee-L	.
.	12gg	.
.	12ffJ	.
*clefF4	*	*
4c	12ee-L	.
.	12dd	.
.	12ccJ	.
4A-	12bnL	.
.	12cc	.
.	12b-J	.
4B-	12a-L	.
.	12g	.
.	12fJ	.
=54	=54	=54
12r	4e-	.
12EE-L	.	.
12FFJ	.	.
12GGL	4r	.
12FF	.	.
12EE-J	.	.
2AA-z	12r	.
.	12B-L	.
.	12cJ	.
.	12dL	.
.	12c	.
.	12B-J	.
!!LO:LB:g=original
=55	=55	=55
12GGL	4e-	.
12EE-	.	.
12FFJ	.	.
12GGL	4r	.
12FF	.	.
12EE-J	.	.
2AA-z	12r	.
.	12B-L	.
.	12cJ	.
.	12dL	.
.	12c	.
.	12B-J	.
=56	=56	=56
12GGL	4e-	.
12EE-	.	.
12FFJ	.	.
12GGL	4r	.
12FF	.	.
12EE-J	.	.
[2AA-z	12r	.
.	12BnL	<
.	12cJ	.
.	12dL	.
.	12c	.
.	12BJ	.
=57	=57	=57
1AA-]	12fL	.
.	12e-	.
.	12dJ	.
.	12a-L	.
.	12g	.
.	12fJ	.
.	12ddL	.
.	12cc	.
.	12bnJ	.
.	12ffL	.
.	12ee-	.
.	12ddJ	.
=58	=58	=58
[1GGG [1GG	2.fff	ff
.	12eee-L	.
.	12ddd	.
.	12cccJ	.
=59	=59	=59
1GGG] 1GG]	12bbnL	.
.	12aa-	.
.	12ggJ	.
.	12ffL	.
.	12ee-	.
.	12ddJ	.
.	12ccL	.
.	12bn	.
.	12a-J	.
*	*tuplet	*
.	(>20gLL	.
.	20f	.
.	20e-	.
.	20d	.
.	20cJJ)	.
!!LO:LB:g=original
=60	=60	=60
[1GG [1D [1F	[1Bn	sf
=61	=61	=61
2GG;<] 2D;<] 2F;<]	2B;]	.
2r	8r	.
.	8g'L	p
.	8cc'	.
.	8dd'J	.
=62	=62	=62
(8CL	(4.ee-	.
8E-	.	.
8G	.	.
8cJ)	8ff	.
(8CL	4.dd	.
8F	.	.
8G	.	.
8BnJ)	8ee-)	.
=63	=63	=63
(8CL	2cc	.
8E-	.	.
8G	.	.
8cJ)	.	.
*clefG2	*	*
.	(8ddq	.
8e-L	(8ccL)	.
8g	8bn	.
8e-	8cc	.
8dJ	8ddJ)	.
=64	=64	=64
.	(8ffq	.
8cL	(8ee-L)	.
8g	8dd	.
8c 8e-	8ee-	.
8gJ	8ffJ)	.
8Bn 8dL	4gg'	.
8g	.	.
8A- 8c	4gg'	.
8gJ	.	.
*clefF4	*	*
=65	=65	=65
(8GL	2.gg	.
8Bn	.	.
8d	.	.
8gJ)	.	.
(8GL	.	.
8B	.	.
8d	(8ffL	.
8gJ)	8ggJ)	.
!!LO:LB:g=original
=66	=66	=66
.	(16ffqLL	.
.	16ggqJJ	.
(8FL	(2aa-)	.
8A-	.	.
8Bn	.	.
8dJ)	.	.
(8FL	4dd)	.
8A-	.	.
8B	(8ee-L	.
8dJ)	8ffJ)	.
=67	=67	=67
.	(16ee-qLL	.
.	16ffqJJ	.
(8E-L	(2gg)	.
8G	.	.
8c	.	.
8e-J)	.	.
(8A-L	4cc)	.
8c	.	.
8e-	(8ccL	.
8f#J)	8ddJ)	.
=68	=68	=68
(8GL	4ee-'	.
8c	.	.
8e-	(8ee-L	.
8gJ)	8ffJ)	.
(8GL	4dd'	.
8Bn	.	.
8d	(8ddL	.
8gJ)	8ee-J)	.
=69	=69	=69
8r	4cc'	.
(8CL	.	.
8E-	4r	.
8GJ	.	.
4c)	4r	.
4r	(8ffL	.
.	8ggJ)	.
=70	=70	=70
8r	2a- (2aa-	>
(8FFL	.	.
8BBn	.	.
8DJ	.	.
8FL	4dd')	]
8A-	.	.
8G	(8ee-L	.
8FJ)	8ffJ)	.
=71	=71	=71
8r	2g (2gg	>
(8EE-L	.	.
8GG	.	.
8CJ	.	.
8E-L	4cc')	]
8G	.	.
8A-	(8ccL	.
8F#J)	8ddJ)	.
!!LO:LB:g=original
=72	=72	=72
8GGL	4ee-'	.
8G	.	.
8c	(8ee-L	.
8GJ	8ffJ)	.
8GGL	4dd'	.
8G	.	.
8Bn	(8ddL	.
8GJ	8ee-J)	.
=73	=73	=73
8CL	4cc	.
8c	.	.
8Bn	2bb-X	<
8cJ	.	.
8EnL	.	.
8c	.	.
8G	[4bb-	.
8cJ	.	.
=74	=74	=74
8FL	(8bb-L]	.
8c	8aa-	.
8A-	8gg	.
8cJ	8ffJ	.
8GL	8ee-L	.
8f	8dd	.
8Bn	8cc	.
8fJ	8bnJ)	.
=75	=75	=75
8A-L	4cc'	.
8e-	.	.
8c	2cc 2ccc	.
8e-J	.	.
8GL	.	.
8en	.	.
8c	[4bb-X	.
8eJ	.	.
=76	=76	=76
8FL	(8bb-L]	.
8f	8aa-	.
8c	8gg	.
8fJ	8ffJ	.
8GL	8ee-L	.
8g	8dd	.
8G	8cc	.
8gJ	8bnJ)	.
=77	=77	=77
4c'	4cc'	.
4G (4Bn	(4ddt	f
.	(16ccqLL	.
.	16ddqJJ	.
4C' 4c')	4ee-'))	.
4GG'\ 4G'\	4bn' 4dd' 4bbn'	.
!!LO:LB:g=original
=78	=78	=78
4CC' 4C'	4cc' 4ee-' 4ccc'	.
4r	4r	.
8r	2r	p
(8AA-L<	.	.
8C	.	.
8E-J)	.	.
=79	=79	=79
(2A-	(2c	.
2D-	2f	.
=80	=80	=80
2G	2B-	.
2C)	2e-)	.
=81	=81	=81
(4F	(2A-	.
2BB-	.	.
.	4d-	.
4C	4c	.
=82	=82	=82
4D-	4B-	.
4Dn	4A-	.
4E-	4G)	.
4EE-)	4r	.
=83	=83	=83
(2AA-	4r	.
.	2cc	.
2D-/	.	.
.	[4f	.
=84	=84	=84
2GG	4f]	.
.	2b-/	.
2C)	.	.
.	[4e-	.
=85	=85	=85
(2FF	(4e-]	.
.	4a-	.
4GG	4g	.
4AA-	4f	.
!!LO:LB:g=original
=86	=86	=86
4AAn	4e-	.
4BB-	4dn	.
4EE-)	4f	.
4r	4e-)	.
=87	=87	=87
4r	(2cc	.
2A- 2c	.	.
.	2f 2ff	.
[4D- [4F	.	.
=88	=88	=88
4D-] 4F]	2b-	.
2G 2B-	.	.
.	[2e-\ 2ee-\)	.
[4C [4E-	.	.
=89	=89	=89
*	*^	*
4C] 4E-]	(2a-	4e-]	.
(4F 4A-	.	4c	.
4BB-\	4dd-	4f	.
4C\	4cc	4e-	.
=90	=90	=90	=90
4D-	4b-	4d-	.
4Dn	4a-	4c	.
4E-)	4g	4B-	.
4r	4e-)	4ryy	.
*	*v	*v	*
=91	=91	=91
2A- (2c	4r	.
.	2cc 2ccc	.
2d- 2f	.	.
.	[4ff	.
=92	=92	=92
2G 2B-	4ff]	.
.	2b- 2bb-	.
2c 2e-)	.	.
.	[4ee-	.
=93	=93	=93
*	*^	*
(2F	4ee-]	2cc	.
.	(4aa-	.	.
4G	4gg	4b-	.
4A-	4ff	4a-	.
=94	=94	=94	=94
4An	4ee-	4g	.
4B-	4ddn	4f	.
4E-)	4ff	4a-	.
(4e-	4ee-)	4g	.
*	*v	*v	*
!!LO:LB:g=original
=95	=95	=95
4dn	2r	.
4e-	.	.
4g-	4r	.
4An	(4ee-	.
=96	=96	=96
4B-)	4cc	.
4r	4dd-	.
4r	4ff	.
4E- (4d-	4g)	.
=97	=97	=97
4A-X 4c)	(4b-	.
4r	4a-	.
4r	4cc	.
4BB- (4A-	4dn	.
=98	=98	=98
4E- 4G)	4e-)	.
4r	(4bb-	.
*clefG2	*	*
8r	4eee-	.
8ee-'L	.	.
8ff'	4ddd-)	.
8gg'J	.	.
=99	=99	=99
8aa-L	(2ccc	.
8gg'	.	.
8ff'	.	.
8ee-'J	.	.
8dd-'L	2fff	.
8cc'	.	.
8b-'	.	.
8a-'J	.	.
*clefF4	*	*
=100	=100	=100
8g'L	2bb-	.
8f'	.	.
8e-'	.	.
8d-'J	.	.
8c'L	2eee-)	.
8B-'	.	.
8A-'	.	.
8G'J	.	.
!!LO:LB:g=original
=101	=101	=101
8F'L>	2aa-	<
8E-'	.	.
8D-'	.	.
8C'J	.	.
8BB-'L	4dd-' 4ddd-'	.
8AAn'	.	.
8BB-'	4cc' 4ccc'	.
8C'J	.	.
=102	=102	=102
8D-'L<	4b-' 4bb-'	.
8C'	.	.
8D-'	4a-' 4aa-'	.
8Dn'J	.	.
8E-'L	4g' 4gg'	.
8F	.	.
8F#'	4dd-'	.
8G'J	.	.
=103	=103	=103
2AA-X	8cccL	f
.	8bb-	.
.	8aa-	.
.	8ggJ	.
2D-/	8ffL	.
.	8ee-	.
.	8dd-	.
.	8ccJ	.
=104	=104	=104
2GG	8b-L	.
.	8a-	.
.	8g	.
.	8fJ	.
2C	8enL	.
.	8d-	.
.	8c	.
.	8B-J	.
*	*clefF4	*
=105	=105	=105
2FF	8A-L	.
.	8G	.
.	8F	.
.	8EnJ	.
[2FFF [2FF	8FLz	.
.	8G	.
.	8A-	.
.	8GJ	.
!!LO:LB:g=original
=106	=106	=106
2FFF] 2FF]	8FL	>
.	8E-X	.
.	8D	.
.	8CJ	.
2FFF# 2FF#	8BBnL	.
.	8C	.
.	8D	.
.	8CJ	]
=107	=107	=107
4GGG'	16r	<
.	(<16GGLL	.
.	16BBn	.
.	16DJJ	.
8r	4G')	.
(16DDLL	.	.
16BBBnJJ)	.	.
4GGG'	16r	.
.	(<16GGLL	.
.	16C	.
.	16E-JJ	.
8r	4G')	.
(16EE-LL	.	.
16CCJJ)	.	.
=108	=108	=108
4GGG'	16r	.
.	(16GGLL<	.
.	16D	.
.	16FJJ	.
8r	4G')	.
(16FFLL	.	.
16DDJJ)	.	.
4GGG'	16r	.
.	(16GGLL<	.
.	16C	.
.	16E-JJ	.
8r	4G')	.
(16EE-LL	.	.
16CCJJ)	.	.
*	*clefG2	*
=109	=109	=109
4GGG'	16r	.
.	(16GLL	.
.	16Bn	.
.	16dJJ	.
8r	4g')	.
(16DLL	.	.
16BB-JJ)	.	.
4GG'	16r	.
.	(16GLL	.
.	16c	.
.	16e-JJ	.
8r	4g')	.
(16E-LL>	.	.
16CJJ)	.	.
!!LO:LB:g=original
=110	=110	=110
4GG'	16r	.
.	(16GLL	.
.	16d	.
.	16fJJ	.
8r	4g')	.
(16FLL	.	.
16DJJ)	.	.
4GG'	16r	.
.	(16GLL	.
.	16c	.
.	16e-JJ	.
8r	4g')	.
(16E-LL	.	.
16CJJ)	.	.
=111	=111	=111
4GG'	16r	ff
.	(16gLL	.
.	16bn	.
.	16ddJJ	.
8r	4gg')	.
(16dLL	.	.
16BnJJ)	.	.
4G'	16r	.
.	(16gLL	.
.	16cc	.
.	16ee-JJ	.
8r	4gg')	.
(16e-LL	.	.
16cJJ)	.	.
=112	=112	=112
4G'	16r	.
.	(16gLL	.
.	16dd	.
.	16ffJJ	.
8r	4gg')	.
(16fLL	.	.
16dJJ)	.	.
4G'	16r	.
.	(16gLL	.
.	16cc	.
.	16ee-JJ	.
8r	4gg')	.
(16e-LL	.	.
16cJJ)	.	.
=113	=113	=113
*	*Xbrackettup	*
4G'	12r	.
.	(12gL	.
.	12f#J	.
4r	12gL	.
.	12bn	.
.	12ddJ	.
4r	12ggLz	.
.	12dd	.
.	12bJ)	.
*	*Xtuplet	*
(12GL	4g'	.
12D	.	.
12BBnJ)	.	.
!!LO:LB:g=original
=114	=114	=114
4GG'	12r	.
.	(12bnL<	.
.	12a#J	.
4r	12bL	.
.	12dd	.
.	12ggJ	.
4r	12bbnLz	.
.	12gg	.
.	12ddJ)	.
(12GL	4b'	.
12D	.	.
12BBnJ)	.	.
=115	=115	=115
4GG'	12r	.
.	(12ddL	.
.	12cc#J	.
4r	12ddL	.
.	12gg	.
.	12bbnJ	.
4r	12dddLz	.
.	12bb	.
.	12ggJ)	.
(12GGL	4dd'	.
12DD	.	.
12BBBnJ)	.	.
=116	=116	=116
4GGG'	12r	.
.	(12ffL	.
.	12eenJ	.
4r	12ffL	.
.	12bbn	.
.	12dddJ	.
2r	12fffL	.
.	12ddd	.
.	12bbJ	.
.	12fffL	.
.	12ddd	.
.	12bbJ)	.
=117	=117	=117
[1GGG [1GG	2.fff	ff
.	12eee-XL	.
.	12ddd	.
.	12cccJ	.
=118	=118	=118
1GGG] 1GG]	12bbnL	.
.	12aa-	.
.	12ggJ	.
.	12ffL	.
.	12ee-	.
.	12ddJ	.
.	12ccL	.
.	12bn	.
.	12a-J	.
*	*tuplet	*
.	(>20gLL	.
.	20f	.
.	20e-	.
.	20d	.
.	20cJJ)	.
!!LO:LB:g=original
=119	=119	=119
[1GG [1D [1F	[1Bn	sf
=120	=120	=120
2GG;] 2D;] 2F;]	2B;]	.
2r	8r	.
.	8g'L	p
.	8cc'	.
.	8dd'J	.
=121	=121	=121
(8CL	(4.ee-	.
8E-	.	.
8G	.	.
8cJ)	8ff	.
(8CL	4.dd	.
8F	.	.
8G	.	.
8BnJ)	8ee-)	.
=122	=122	=122
(8CL	2cc	.
8E-	.	.
8G	.	.
8cJ)	.	.
.	(8qdd	.
8e-L	(8ccL)	.
8g	8bn	.
8e-	8cc	.
8dJ	8ddJ	.
=123	=123	=123
.	(8ffq	.
8cL	8ee-L)	.
8g	8dd	.
8c 8e-	8ee-	.
8gJ	8ffJ)	.
8Bn 8dL	4gg'	.
8g	.	.
8A- 8c	4gg'	.
8gJ	.	.
=124	=124	=124
(8GL	2.gg	.
8Bn	.	.
8d	.	.
8gJ)	.	.
(8GL	.	.
8B	.	.
8d	(8ffL	.
8gJ)	8ggJ)	.
!!LO:LB:g=original
=125	=125	=125
.	(16ffqLL	.
.	16ggqJJ	.
(8FL	(2aa-)	.
8A-	.	.
8Bn	.	.
8dJ)	.	.
(8FL	4dd)	.
8A-	.	.
8B	(8ee-L	.
8dJ)	8ffJ)	.
=126	=126	=126
.	(16ee-qLL	.
.	16ffqJJ	.
(8E-L	()2gg)	.
8G	.	.
8c	.	.
8e-J)	.	.
(8A-L	4cc)	.
8c	.	.
8e-	(8ccL	.
8f#J)	8ddJ)	.
=127	=127	=127
(8GL	4ee-'	.
8c	.	.
8e-	(8ee-L	.
8gJ)	8ffJ)	.
(8GL	4dd'	.
8Bn	.	.
8d	(8ddL	.
8gJ)	8ee-J)	.
=128	=128	=128
8r	4cc	.
(8CCL	.	.
8EE-	4r	.
8GGJ	.	.
8CL>	2r	.
8E-	.	.
8F	.	.
8GJ)	.	.
=129	=129	=129
(2A-	8r	.
.	(8BnL	.
.	8d	.
.	8fJ)	.
4D')	8r	.
.	(8ffL	.
(8E-L	8dd	.
8FJ)	8bnJ)	.
=130	=130	=130
(2G	8r	.
.	(8cL	.
.	8e-	.
.	8gJ)	.
4C'\)	8r	.
.	(8ggL	.
(8B-XL	8ee-	.
8cJ)	8ccJ)	.
!!LO:LB:g=original
=131	=131	=131
(2d-	8r	.
.	(8enL	.
.	8g	.
.	8b-J)	.
4G')	8r	.
.	(8bb-L	.
(8A-L	8gg	.
8B-J)	8eenJ)	.
=132	=132	=132
(2c	8r	.
.	(8fL<	.
.	8a-	.
.	8ccJ	.
4F')	8ffL	.
.	8aa-	.
4r	8ccc	.
.	[8fffJ)z	.
=133	=133	=133
*^	*	*
(4c	2A-	(4fff]	.
4f	.	4eee-	.
4c	2A-	4ddd	.
4f#)	.	4ccc	.
*v	*v	*	*
=134	=134	=134
4G	4bbn')	p
*clefG2	*	*
!	!LO:TX:i:b:t=dolce	!
(4g	2gg	.
4f	.	.
4g	[4gg	.
=135	=135	=135
4en	(8ggL]	.
.	8aan	.
4g	8bbn	.
.	8cccJ	.
4Bn	8dddL	.
.	8eeen	.
4g)	8fff	.
.	8dddJ)	.
=136	=136	=136
*^	*	*
(4c	2ryy	(8fffL	.
.	.	8eeen	.
4g)	.	8ddd	.
.	.	8cccJ	.
2dd	(<4f	8cccL	.
.	.	8bbn	.
.	4g	8aan	.
.	.	8bbJ)	.
!!LO:LB:g=original
=137	=137	=137	=137
2cc	4en	(8dddL	.
.	.	8ccc	.
.	4g	8bbn	.
.	.	8aanJ)	.
2ryy	4Bn	4ff 4gg	.
.	4g)	4ff 4gg	.
*v	*v	*	*
=138	=138	=138
*	*^	*
(4c	[1gg	(8ffL	.
.	.	8een	.
4g	.	8dd	.
.	.	8ccJ)	.
4f	.	(8ccL	.
.	.	8bn	.
4g	.	8an	.
.	.	8bJ)	.
*	*v	*v	*
=139	=139	=139
4en	(8cc 8ggL]	.
.	8aan	.
4g	8bbn	.
.	8cccJ	.
4Bn	8dddL	.
.	8eeen	.
4g	8fff	.
.	8dddJ	.
=140	=140	=140
*^	*	*
4c	2ryy	8fffL	.
.	.	8eeen	.
4g	.	8ddd	.
.	.	8cccJ	.
4cc	2en	8bbnL	<
.	.	8ccc	.
4g)	.	8eee	.
.	.	8cccJ)	.
=141	=141	=141	=141
(4cc	2f	(8bbnL	.
.	.	8aan	.
4an	.	8ccc	.
.	.	8aaJ	.
4cc#	2f	8ggL	.
.	.	8ff	.
4a)	.	8aa	.
.	.	8ffJ)	.
*v	*v	*	*
!!LO:LB:g=original
=142	=142	=142
(4f 4dd	(8eenL	.
.	8dd	.
4an	8ff	.
.	8ddJ	.
4f	8aanL	.
.	8ff	.
4f#)	8dd	.
.	8ccJ)	.
=143	=143	=143
8g	(12bnL	.
.	12g	.
8r	.	.
.	12anJ	.
4r	12bL	.
.	12a	.
.	12gJ)	.
*tuplet	*	*
*Xbrackettup	*	*
12r	2ccz	.
(12dL	.	.
12enJ	.	.
12f#L	.	.
12e	.	.
12dJ)	.	.
=144	=144	=144
*	*Xtuplet	*
8g'	(12bnL	.
.	12g	.
8r	.	.
.	12anJ	.
4r	12bL	.
.	12a	.
.	12gJ)	.
*Xtuplet	*	*
12r	2ccz	.
(12dL	.	.
12enJ	.	.
12f#L	.	.
12e	.	.
12dJ)	.	.
=145	=145	=145
8g'	12bnL	.
.	12g	.
8r	.	.
.	12anJ	.
4r	12bL	.
.	12a	.
.	12gJ	.
4g'	12ddL	.
.	12b	.
.	12ccJ	.
4r	12ddL	.
.	12cc	.
.	12bJ	.
*clefF4	*	*
!!LO:LB:g=original
=146	=146	=146
4G 4Bni 4dn 4f	12ffL	.
.	12een	.
.	12ddJ	.
4r	12ccL	.
.	12bn	.
.	12anJ	.
2r	12gL	.
.	12a	.
.	12gJ	.
.	12fL	.
.	12en	.
.	12dJ	.
=147	=147	=147
4C	12enL	.
.	12c	.
.	12dJ	.
4r	12eL	.
.	12d	.
.	12cJ	.
12r	2fz	.
12GL	.	.
12AnJ	.	.
12BnL	.	.
12A	.	.
12GJ	.	.
=148	=148	=148
4c'	12enL<	.
.	12cc	.
.	12ddJ	.
4r	12eenL	.
.	12dd	.
.	12ccJ	.
12r	2ffz	.
12GL	.	.
12AnJ	.	.
12BnL	.	.
12A	.	.
12GJ	.	.
=149	=149	=149
4c'	12eenL	.
.	12cc	.
.	12ddJ	.
4r	12eeL	.
.	12dd	.
.	12ccJ	.
4c	12ggL	.
.	12ee	.
.	12ffJ	.
4r	12ggL	.
.	12ff	.
.	12eeJ	.
!!LO:LB:g=original
=150	=150	=150
4En 4G 4B-X 4c	(12bb-XL	.
.	12aan	.
.	12ggJ	.
4r	12ffL	.
.	12een	.
.	12ddJ	.
2r	12ccL	.
.	12bn	.
.	12ccJ	.
.	12cc#L	.
.	12dd	.
.	12b-J)	f
=151	=151	=151
(12FFL<	4r	.
12AAn	.	.
12CJ	.	.
4F)	(12AnL	.
.	12c	.
.	12fJ	.
2r	12anL	.
.	12cc	.
.	12ffJ)	.
.	8aan'L	.
.	8aa'J	.
=152	=152	=152
4G 4c 4en	(8aanL	.
.	8gg)	.
4r	8ff'	.
.	8een'J	.
4G 4d 4f	(8eeL	.
.	8dd)	.
4r	8cc'	.
.	8bn'J	.
=153	=153	=153
4c 4en	4cc	.
4r	4r	.
2r	4r	.
.	4g	p
*clefG2	*	*
=154	=154	=154
*	*	*below:2
(4f' 4g'	4bn' (4dd'	p
4f' 4g'	4b' 4dd'	.
4f' 4g'	4b' 4dd'	.
4f') 4g'	4b' 4dd')	.
!!LO:LB:g=original
=155	=155	=155
2.en 2.g	2.cc 2.gg	.
4e 4g	4cc 4gg	.
=156	=156	=156
2an'	2cc' 2ee-X' 2ff#'	.
2a'	2cc' 2dd' 2ff#'	.
=157	=157	=157
4g	4bn 4dd 4gg	.
4r	4r	.
2r	4r	.
.	4G	.
*clefF4	*	*
=158	=158	=158
4F' (4G'	(4Bn' 4d'	.
4F' 4G'	4B' 4d'	.
4F' 4G'	4B' 4d'	.
4F' 4G')	4B') 4d'	.
=159	=159	=159
*	*^	*
2.E-X 2.G	2.g	4r	.
.	.	(4Bn	.
.	.	[2c)	.
4E-	4g	.	.
*	*v	*v	*
=160	=160	=160
(4A-X'	(4c] 4f	.
4A-'	4c' 4f'	.
4A-' 4B-X'	4d' 4f'	.
4A-' 4B-')	[4d') 4f'	.
=161	=161	=161
*	*^	*
2.G 2.B-	2.b-	4d]	.
.	.	(4d	.
.	.	[2e-)	.
4G	4b-	.	.
*	*v	*v	*
!!LO:LB:g=original
=162	=162	=162
4c	4e-] 4an	.
(4c' 4e-'	(4f# 4a	.
4c' 4e-'	4f#' 4a'	.
4c' 4e-')	(4f#') 4a'	.
=163	=163	=163
*	*^	*
2.Bn 2.d	2.dd	4f#)	<
.	.	(4f#	.
.	.	4g)	.
4c 4e-	(4an	[4f#	[
=164	=164	=164	=164
2.Bn 2.d	2.dd)	4f#]	>
.	.	(4f#	.
.	.	4g)	.
*clefG2	*	*	*
4f 4a-	(4dd	[4bn	]
=165	=165	=165	=165
*	*	*	*centered
2.e- 2.g	2.gg)	4b]	<
.	.	(4bn	.
.	.	4cc)	.
4f 4a-	(4dd	[4b	[
=166	=166	=166	=166
2.e- 2.g	2.gg)	4b]	>
.	.	(4bn	.
.	.	4cc)	.
4f 4a-	(4dd	[4b	]
=167	=167	=167	=167
1r	(1aa-)	4b]	.
!	!	!LO:TX:i:b:t=calando	!
.	.	(4a#	.
.	.	4bn	.
.	.	4dd)	.
=168	=168	=168	=168
1r	1gg	4r	.
.	.	(4a#	.
.	.	4bn	.
.	.	4dd)	.
!!LO:LB:g=original
=169	=169	=169	=169
1r	1ff#	4r	.
.	.	4a#	.
.	.	4bn	.
.	.	[4dd	.
=170	=170	=170	=170
2r	1ffn)	(4dd]	.
.	.	4a#	.
4r	.	2bn)	.
*clefF4	*	*	*
4GG'	.	.	.
*	*v	*v	*
=171	=171	=171
(8CL	4.g 4.cc (4.ee-	p
8E-	.	.
8G	.	.
8cJ)	8ff	.
(8CL	4.dd	.
8F	.	.
8G	.	.
8BnJ)	8ee-)	.
=172	=172	=172
(8CL	2cc	.
8E-	.	.
8G	.	.
8cJ)	.	.
*clefG2	*	*
.	(8ddq	.
8e-L	(8ccL)	.
8g	8bn	.
8e-	8cc	.
8dJ	8ddJ)	.
=173	=173	=173
.	(8ddq	.
8cL	(8ee-L)	.
8g	8dd	.
8c 8e-	8ee-	.
8gJ	8ffJ)	.
8Bn 8dL	4gg'	.
8g	.	.
8A- 8c	4gg'	.
8gJ	.	.
*clefF4	*	*
!!LO:LB:g=original
=174	=174	=174
(8GL	2.gg	.
8Bn	.	.
8d	.	.
8gJ)	.	.
(8GL	.	.
8B	.	.
8d	(8ffL	.
8gJ)	8ggJ)	.
=175	=175	=175
.	(16ffqLL	.
.	16ggqJJ	.
(8FL	(2aa-)	.
8A-	.	.
8Bn	.	.
8dJ)	.	.
(8FL	4dd)	.
8A-	.	.
8B	(8ee-L	.
8dJ)	8ffJ)	.
=176	=176	=176
.	(16ee-qLL	.
.	16ffqJJ	.
(8E-L	(2gg)	.
8G	.	.
8c	.	.
8e-J)	.	.
(8A-L	4cc)	.
8c	.	.
8e-	(8ccL	.
8f#J)	8ddJ)	.
=177	=177	=177
(8GL	4ee-'	.
8c	.	.
8e-	(8ee-L	.
8gJ)	8ffJ)	.
(8GL	4dd'	.
8Bn	.	.
8d	(8ddL	.
8gJ)	8ee-J)	.
=178	=178	=178
4c	(8ccL	.
.	8bn	.
4r	8cc	.
.	8ddJ	.
2r	8ee-L	.
.	8een	.
.	8ff	.
.	8ggJ)	.
!!LO:LB:g=original
=179	=179	=179
8FFL	(8aa-L	<
8AA-	8gg	.
8BBn	8bb-	.
8DJ	8aa-J	.
8FFL	8ggL	.
8AA-	8ff	.
8BB	8ee-X	.
8DJ	8ddJ	.
=180	=180	=180
8EE-L	8ggL	.
8GG	8ff#	.
8C	8aa-	.
8E-J	8ggJ	.
8AA-L	8ffnL	.
8C	8ee-	.
8E-	8dd	.
8F#J	8ccJ	.
=181	=181	=181
8GGL<	8ee-L	.
8C	8dd	.
8E-	8ff	.
8GJ	8ee-J	.
8GGL<	8ddL	.
8G	8cc#	.
8GG	8ee-	.
8GJ	8ddJ	.
=182	=182	=182
(8CL	4ccn)	p
8c	.	.
8Bn	4r	.
8cJ	.	.
*	*tuplet	*
8B-L	12r	.
.	(12cccL	<
8c	.	.
.	12dddJ	.
8G	12eeenL	.
.	12ddd	.
8cJ)	.	.
.	12cccJ)	.
*	*Xtuplet	*
=183	=183	=183
(8A-L	4fff'z	.
8c	.	.
8F	4r	.
8cJ	.	.
8B-L	12r	.
.	(12cccL	.
8c	.	.
.	12dddJ	.
8G	12eeenL	.
.	12ddd	.
8cJ)	.	.
.	12cccJ)	.
!!LO:LB:g=original
=184	=184	=184
(8A-L	4fff'z	.
8c	.	.
8F	4r	.
8cJ	.	.
8B-L	12r	.
.	(12cccL	.
8c	.	.
.	12dddJ	.
8G	12eeenL	.
.	12ddd	.
8cJ)	.	.
.	12cccJ)	.
=185	=185	=185
4A-'	4fff'	.
4AA-' 4C' 4E-' 4A-'	4cc' 4ee-X' 4ff#' 4ccc'	ff
4GG'\ 4C'\ 4E-'\ 4G'\	4cc' 4ee-' 4gg' 4ccc'	.
4GG'\ 4BBn'\ 4D'\ 4G'\	4bn' 4dd' 4gg' 4bbn'	.
=186	=186	=186
(8CCL	4cc' 4ee-' 4gg' 4ccc'	.
8C	.	.
8BBn	4r	.
8CJ	.	.
8BB-L	12r	.
.	(12ccL	.
8C	.	.
.	12ddJ	.
8GG	12eenL	.
.	12dd	.
8CJ)	.	.
.	12ccJ)	.
=187	=187	=187
(8AA-L	4ff'z	.
8C	.	.
8FF	4r	.
8CJ	.	.
8BB-L	12r	.
.	(12ccL	.
8C	.	.
.	12ddJ	.
8GG	12eenL	.
.	12dd	.
8CJ)	.	.
.	12ccJ)	.
=188	=188	=188
(8AA-L	4ff'z	.
8C	.	.
8FF	4r	.
8CJ	.	.
8BB-L	12r	.
.	(12cL	.
8C	.	.
.	12dJ	.
8GG	12enL	.
.	12d	.
8CJ)	.	.
.	12cJ)	.
!!LO:LB:g=original
=189	=189	=189
4AA-	12f'L	p
.	12c	.
.	12dJ	.
4AA-' 4A-'	12e-XL	.
.	12d	.
.	12cJ	.
4r	12f#'L	<
.	12c	.
.	12dJ	.
4AA-' 4C' 4E-' 4A-'	12e-L	.
.	12d	.
.	12cJ	.
=190	=190	=190
4r	12g'L	.
.	12c	.
.	12dJ	.
4GG' 4C' 4E-' 4G'	12e-L	.
.	12d	.
.	12cJ	.
4r	12an'L	.
.	12c	.
.	12dJ	.
4FF#' 4C' 4E-' 4F#'	12e-L	.
.	12d	.
.	12cJ	.
=191	=191	=191
4r	12bn'L	.
.	12Bn	.
.	12cJ	.
4FFn' 4BBn' 4D' 4Fn'	12dL	.
.	12c	.
.	12BJ	.
4r	12cc'L	.
.	12c	.
.	12dJ	.
4EE-' 4GG' 4C' 4E-'	12e-L	.
.	12d	.
.	12cJ	.
=192	=192	=192
4r	12dd'L	.
.	12d	.
.	12e-J	.
4FF' 4AA-' 4D' 4F'	12fL	.
.	12e-	.
.	12dJ	.
4r	12bn'L	.
.	12Bn	.
.	12cJ	.
4GG' 4BBn' 4D' 4G'	12dL	.
.	12c	.
.	12BJ	.
!!LO:LB:g=original
=193	=193	=193
4CC 4C	4c 4cc	f
2.E-z 2.Gz 2.cz	4r	.
.	(4ggz	.
.	16ffLL	.
.	16ee-	.
.	16dd	.
.	16ccJJ	.
=194	=194	=194
4F 4A- 4c 4d	4dd')	.
2.Gz 2.Bnz 2.dz	4r	.
.	(4ffz	.
.	16ee-LL	.
.	16dd	.
.	16cc	.
.	16bnJJ	.
=195	=195	=195
4E- 4G 4c	4cc')	.
2.E-z 2.Gz 2.cz	4r	.
.	(4ggz	.
.	16ffLL	.
.	16ee-	.
.	16dd	.
.	16ccJJ	.
=196	=196	=196
4F 4A- 4c 4d	4dd')	.
2.Gz 2.Bnz 2.dz	4r	.
.	(4ffz	.
.	16ee-LL	.
.	16dd	.
.	16cc	.
.	16bnJJ	.
=197	=197	=197
4E- 4G 4c	4cc')	.
2.E-z 2.Gz 2.cz	4r	.
.	(4ggz	.
.	16ffLL	.
.	16ee-	.
.	16dd	.
.	16ccJJ	.
=198	=198	=198
4F 4A- 4d-	4dd-')	.
2F 2A- 2d-	4r	.
.	[2fff	ff
4F' 4A-' 4d-'	.	.
!!LO:LB:g=original
=199	=199	=199
[1Gz [1B-z [1d-z [1e-z	2.fff]	.
.	12eee-L	.
.	12ddd-	.
.	12cccJ	.
=200	=200	=200
2G] 2B-] 2d-] 2e-]	12bb-L	.
.	12aa-	.
.	12ggJ	.
.	12ffL	.
.	12ee-	.
.	12dd-J	.
*	*tuplet	*
2r	(24ccLL	.
.	24b-	.
.	24a-	.
.	24g	.
.	24f	.
.	24e-JJ)	.
.	(>28d-LL	.
.	28c	.
.	28B-<	.
.	28A-<	.
.	28G<	.
.	28F<	.
.	28E-<JJ)	.
=201	=201	=201
[1GGG [1EE- [1GG<	[>1D-<	sf
=202	=202	=202
2.GGG] 2.EE-] 2.GG]	2.D-<]	.
4r	(8A-L	p
.	8B-J)	.
=203	=203	=203
*^	*	*
(2E-	[1AA-	(4.c	.
.	.	8d-	.
2D-	.	4.B-	.
.	.	8c)	.
*v	*v	*	*
=204	=204	=204
4AA-] 4C)	4A-	.
4r	4r	>
2r	4r	.
.	(8a-L	.
.	8b-J)	.
!!LO:LB:g=original
=205	=205	=205
*^	*	*
(2e-	[1A-	(4.cc	.
.	.	8dd-	.
2d-	.	4.b-	.
.	.	8cc)	.
*v	*v	*	*
=206	=206	=206
4A-] 4c)	4a-	.
4r	4r	.
2r	4r	.
.	(4cc	pp
*clefG2	*	*
=207	=207	=207
*	*^	*
4a-	4ff#)	4ee-	.
4r	4r	4r	.
2r	4r	4r	.
.	4ryy	(4cc	.
=208	=208	=208	=208
4g	4gg)	4ee-	.
4r	4r	4r	.
2r	4r	4r	.
*	*	*Xtuplet	*
.	4ryy	12eee-L	ff
.	.	12ddd	.
.	.	12cccJ	.
*clefF4	*	*	*
*	*v	*v	*
=209	=209	=209
4GG 4BBn 4D 4G	12fffL	.
.	12eee-	.
.	12dddJ	.
4r	12cccL	.
.	12bbn	.
.	12aa-J	.
2r	12ggL	.
.	12ffn	.
.	12ee-J	.
.	12ddL	.
.	12cc	.
.	12bnJ	.
=210	=210	=210
4CC' 4EE-' 4GG' 4C'	4cc'	sff
4r	4r	.
8r;	8r;	.
==	==	==
*-	*-	*-
!!!RDF**kern: > = above
!!!RDF**kern: < = below
!!!RDF**kern: i = editorial accidental, bracket
!!!verovio: beamFrenchStyle
!!!LOR: Durand 1915, plates 9327/9328, Paul Dukas, ed.
!!!PED: Dukas, Paul
!!!URL-vhv: https://verovio.humdrum.org/?file=beethoven/sonatas/sonata08-3.krn
!!!URL-pdf: https://github.com/craigsapp/beethoven-piano-sonatas/blob/master/reference-edition/sonata08-3.pdf
!!!ENC: Craig Stuart Sapp
!!!END: 2005/08/23
!!!EED: Craig Stuart Sapp
!!!EEV: 2023/04/15
